X:1
T:Thus in thy sacred courts will I
T:Joseph Stephenson
T:Text: Tate/Brady on Ps 22.
T:This edition by Edmund Gooch released into the public domain, May 2013.
T:Thus in thy sacred courts will I
T:Ps. 22d. Ver 25th.
C:Joseph Stephenson
Z:Text: Tate/Brady on Ps 22.
%%score [ 1 2 3 4 ]
L:1/8
M:3/2
K:Cmin
V:1 treble nm="SOPRANO" snm="S."
V:2 treble nm="ALTO" snm="A."
V:3 treble-8 transpose=-12 nm="TENOR" snm="T."
V:4 bass nm="BASS" snm="B."
V:1
 c4 | c8 d4 | e8 d4 | (c3 d e4) d4 | c8 =B4 | c8 c4 | (d2 c2) B8 | B8 B4 | B8 B4 | (c4 B4) c4 | %10
w: The|rich, who|are with|plen- * * ty|fed, His|boun- ty|must _ con-|fess The|sons of|want, _ by|
w: Thus|in thy|sa- cred|courts _ _ will|I My|cheer- ful|thanks _ ex-|press; In|pre- sence|of _ thy|
w: The|meek com-|pan- ions|of _ _ my|grief Shall|find my|ta- * ble|spread; And|all that|seek _ the|
 (e4 d4) (d2 c2) | =B8 d4 | e8 d4 | (c3 d) (e4 d4) | c8 |] %15
w: him _ re- *|liev’d, Their|gen- ’rous|pa- * tron _|bless.|
w: saints _ per- *|form The|vows of|my _ dis- *|tress.|
w: Lord _ shall _|be With|joys im-|mor- * tal _|fed.|
V:2
 E4 | G8 G4 | G8 ^F4 | G8 G4 | G8 G4 | G8 A4 | A4 F8 | G8 G4 | F8 G4 | (E4 F4) G4 | G8 ^F4 | %11
w: The|rich, who|are with|plen- ty|fed, His|boun- ty|must con-|fess The|sons of|want, _ by|him re-|
w: Thus|in thy|sa- cred|courts will|I My|cheer- ful|thanks ex-|press; In|pre- sence|of _ thy|saints per-|
w: The|meek com-|pan- ions|of my|grief Shall|find my|ta- ble|spread; And|all that|seek _ the|Lord shall|
 G8 G4 | B8 A4 | G8 G4 | G8 |] %15
w: liev’d, Their|gen- ’rous|pa- tron|bless.|
w: form The|vows of|my dis-|tress.|
w: be With|joys im-|mor- tal|fed.|
V:3
 c4 | e8 d4 | c8 B4 | G8 =B4 | c8 d4 | e8 c4 | f4 Td8 | e8 e4 | d8 e4 | (c4 d4) e4 | (c4 B4) A4 | %11
w: The|rich, who|are with|plen- ty|fed, His|boun- ty|must con-|fess The|sons of|want, _ by|him _ re-|
w: Thus|in thy|sa- cred|courts will|I My|cheer- ful|thanks ex-|press; In|pre- sence|of _ thy|saints _ per-|
w: The|meek com-|pan- ions|of my|grief Shall|find my|ta- ble|spread; And|all that|seek _ the|Lord _ shall|
 G8 G4 | (c2 d2 e4) f4 | (d2 c2 G4) =B4 | c8 |] %15
w: liev’d, Their|gen- * * ’rous|pa- * * tron|bless.|
w: form The|vows _ _ of|my _ _ dis-|tress.|
w: be With|joys _ _ im-|mor- * * tal|fed.|
V:4
 C,4 | C,8 G,,4 | C,8 D,4 | G,8 G,,4 | C,8 G,4 | C8 A,4 | F,4 B,8 | E,8 E,4 | %8
w: The|rich, who|are with|plen- ty|fed, His|boun- ty|must con-|fess The|
w: Thus|in thy|sa- cred|courts will|I My|cheer- ful|thanks ex-|press; In|
w: The|meek com-|pan- ions|of my|grief Shall|find my|ta- ble|spread; And|
"^Notes:The alto part is notated in the alto clef in the source.All instances of B§ (as given here) are shown in the source with a # sign.The opening words of the first verse underlaid here are given in the source, as ‘Thus in thy sacred Courts &c.’, with thetitle 'Ps. 22d. Ver 25th' also indicating the text: this and three other stanzas from the text have been underlaid editorially." B,8 G,4 | %9
w: sons of|
w: pre- sence|
w: all that|
 (A,4 G,4) C,4 | (C4 D4) D,4 | G,8 G,4 | (E,2 D,2 C,4) D,4 | G,8 G,,4 | C,8 |] %15
w: want, _ by|him _ re-|liev’d, Their|gen- * * ’rous|pa- tron|bless.|
w: of _ thy|saints _ per-|form The|vows _ _ of|my dis-|tress.|
w: seek _ the|Lord _ shall|be With|joys _ _ im-|mor- tal|fed.|

